svg/Frame.svg

<svg width="40" height="40" viewBox="0 0 40 40" fill="none" xmlns="http://www.w3.org/2000/svg"><path d="M27.5037 14.8396H12.0688C9.7981 14.8396 7.41992 16.3161 7.41992 19.4884V29.9769C7.41992 33.1047 9.06877 34.6257 12.0688 34.6257H27.5037C30.591 34.6257 32.1526 32.3153 32.1526 29.9769V19.4884C32.1526 16.4884 30.2192 14.8396 27.5037 14.8396Z" stroke="#0D131A" stroke-width="2.47327"/><path d="M14.016 26.0838C14.9267 26.0838 15.6649 25.3456 15.6649 24.435C15.6649 23.5243 14.9267 22.7861 14.016 22.7861C13.1054 22.7861 12.3672 23.5243 12.3672 24.435C12.3672 25.3456 13.1054 26.0838 14.016 26.0838Z" fill="#0D131A"/><path d="M25.557 26.0838C26.4677 26.0838 27.2059 25.3456 27.2059 24.435C27.2059 23.5243 26.4677 22.7861 25.557 22.7861C24.6464 22.7861 23.9082 23.5243 23.9082 24.435C23.9082 25.3456 24.6464 26.0838 25.557 26.0838Z" fill="#0D131A"/><path d="M19.7861 8.24422V14.8396" stroke="#0D131A" stroke-width="2.47327" stroke-linecap="round" stroke-linejoin="round"/><path d="M3.29761 21.435V28.0304" stroke="#0D131A" stroke-width="2.47327" stroke-linecap="round" stroke-linejoin="round"/><path d="M36.2747 21.435V28.0304" stroke="#0D131A" stroke-width="2.47327" stroke-linecap="round" stroke-linejoin="round"/><path d="M19.7861 8.24422C20.6967 8.24422 21.4349 7.50601 21.4349 6.59538C21.4349 5.68475 20.6967 4.94653 19.7861 4.94653C18.8754 4.94653 18.1372 5.68475 18.1372 6.59538C18.1372 7.50601 18.8754 8.24422 19.7861 8.24422Z" stroke="#0D131A" stroke-width="2.47327"/></svg>

<svg fill="none" viewBox="0 0 40 40"><path stroke="#0D131A" stroke-width="2.473" d="M27.504 14.84H12.069c-2.27 0-4.65 1.476-4.65 4.648v10.489c0 3.128 1.65 4.649 4.65 4.649h15.435c3.087 0 4.649-2.31 4.649-4.65V19.489c0-3-1.934-4.648-4.65-4.648Z"/><path fill="#0D131A" d="M14.016 26.084a1.649 1.649 0 1 0 0-3.298 1.649 1.649 0 0 0 0 3.298"/><path fill="#0D131A" d="M25.557 26.084a1.649 1.649 0 1 0 0-3.298 1.649 1.649 0 0 0 0 3.298"/><path stroke="#0D131A" stroke-linecap="round" stroke-linejoin="round" stroke-width="2.473" d="M19.786 8.244v6.596"/><path stroke="#0D131A" stroke-linecap="round" stroke-linejoin="round" stroke-width="2.473" d="M3.298 21.435v6.595"/><path stroke="#0D131A" stroke-linecap="round" stroke-linejoin="round" stroke-width="2.473" d="M36.275 21.435v6.595"/><path stroke="#0D131A" stroke-width="2.473" d="M19.786 8.244a1.649 1.649 0 1 0 0-3.297 1.649 1.649 0 0 0 0 3.297Z"/></svg>
